X:1
T:When Jesus Speaks
T:When Jesus Speaks
T:Charles Hutchinson Gabriel, Jr.
T:Eliza Edmunds Hewitt, 1915
T:Public Domain Courtesy of the Cyber Hymnal™
C:Charles Hutchinson Gabriel, Jr.
Z:Public Domain
Z:Courtesy of the Cyber Hymnal™
%%score 1 ( 2 3 )
L:1/8
Q:1/4=103
M:6/8
K:Ab
V:1 treble 
V:2 bass 
V:3 bass 
V:1
 C | E2 E (EF)E | E2 D C2 _G x | F2 F F2 _F | E3- E2 C | E2 E (EF)E | E2 =E F2 _E | %7
w: 1.~I|hear sweet whis- * per-|ings of love When|Je- sus speaks to|me; * And|bless- èd com- * fort|from a- bove, When|
w: 2.~’Twill|be sure guid- * ance|day by day, When|Je- sus speaks to|me; * To|lead me in * His|own right way, When|
w: 3.~There’ll|be re- buke, * when-|e’er I sin, When|Je- sus speaks to|me; * A|clos- er fel- * low-|ship to win, When|
w: 4.~His|king- ly word * shall|be with pow’r, When|Je- sus speaks to|me; * Grace|for the needs * of|ev- ’ry hour, When|
 [B,=D]2 [A,D] [G,^C]2 [A,D] | D3- D2 ||"^Refrain" (D/E/) | E2 E (EG)F | E2 =D _D2 D | %12
w: Je- sus speaks to|me. *||||
w: Je- sus speaks to|me. *||||
w: Je- sus speaks to|me. *||||
w: Je- sus speaks to|me. *||||
 (DC)D (GE)D | D2 D C2 C | DDD E2 D | CC[CA] !fermata!G2 F | E2 C E2 D | C3- C2 |] %18
w: ||||||
w: ||||||
w: ||||||
w: ||||||
V:2
 E, | [A,,C]2 [E,C] (CD)C | C2 [E,F,] [E,G,B,] [A,,A,]2 [C,A,] | D2 D A,2 B, | C3- [A,C]2 E, | %5
w: ~|~ ~ ~ * ~|~ ~ ~ ~ ~|* ~ ~ ~|~ ~ ~|
 [A,,C]2 [E,C] (CD)C | [E,C]2 [C,G,B,] A,2 A, | G,2 F, =E,2 F, | [E,,B,,G,B,]3- [E,,B,,G,B,]2 || %9
w: * ~ ~ * ~|~ ~ ~ ~|~ ~ ~ ~|~ *|
 E, | [A,,A,C]2 [E,C] (CE)[E,D] | C2 [A,,F,=B,] [E,G,_B,]2 E, | %12
w: When|Je- sus speaks, * when|Je- sus speaks, So|
 ([E,-G,B,][E,^F,=A,])[E,G,B,] ([C,-E][C,E,C])[E,G,B,] | F,2 _F, [A,,E,]2 E, | %14
w: faith- * ful He * will|ev- er be That|
 F,=E,[B,,F,] (G,^F,)[=E,G,] | A,G,[F,A,] !fermata![=D,A,=B,]2 [D,A,B,] | %16
w: I will re- joice * To|hear His sweet voice, When|
 [E,A,C]2 [E,A,] [E,A,C]2 [E,G,B,] | [A,,E,A,]3- [A,,E,A,]2 |] %18
w: Je- sus speaks to|me. *|
V:3
 x | x3 A,3 | E, x6 | [D,A,]3 D,3 | A,,C,E, x3 | x3 A,3 | x3 [F,,F,]3 | B,,3 B,,3 | x5 || x | %10
 x3 [A,,A,]2 x | ([A,,A,]E,) x4 | x6 | A,,3 x3 | D,2 _E,2 x2 | F,2 x4 | x6 | x5 |] %18

